X:3002
T:Cabri Waltz
R:Waltz
C:Trad.
O:?
Z:Paul Hardy's Possible Tunebook 2015 (see www.paulhardy.net). Creative Commons cc by-nc-sa licenced.
M:3/4
L:1/8
Q:1/4=100
K:G
zB,A,B,|"G"G,2B,3D|"G7"D3D (3B,A,G,|"C"C2E3G|"C#dim"E3G FE|"D"D>E F>G A>B|"D7"(3c>dc B2A2|"C" G3 A G>E|"D"D4 (3B,A,B,|
"G"G,2B,3D|"G7"D4 (3DB,G,|"C"C2E3G|"A"E3G FE|"D"D>E F>G A>B|"D7"c2B2A2|"G"G2 G>A "C"G>F|"G"G3A Bd||
g4 (3gag|"D"f4 Ac|"C"e2 e>g ed|"G"B4 (3Bc^c|"D7"d3e d=c|A3D FA|"G"G3A "C"A>G|"G" G4||

